src/assets/images/brands/kia.svg

<svg height="31" viewBox="0 0 129 31" width="129" xmlns="http://www.w3.org/2000/svg"><path d="m126.333336 23.463066c-1.920487 1.177191-5.575653 3.369793-10.966309 6.579462-.121948.073004-.228965.125269-.319389.156794-.02739.009125-.052277.003317-.072998-.017424-.089607-.092081-.134415-.201589-.133583-.327688.011619-6.503126.005821-13.00544-.017403-19.507738-.000847-.268786-.06057-.443007-.332672-.502732-.025726-.004985-.052261-.002492-.0755.009123-.153481.076325-.259667.132731-.316903.17006-9.677955 6.266704-19.350944 12.543367-29.009826 18.839935-.922508.601452-1.672463.666986-2.884476.670301-4.07991.014109-8.162315.025719-12.241402-.003315-2.248176-.016592-4.500511.035672-6.747028-.02074-1.173038-.029864-1.873211-.936602-1.898098-2.087244-.017414-.843689-.025715-1.577872-.024055-2.202553.019077-7.326912.049774-14.653002-.019085-21.97909-.00166-.118629-.050606-.224817-.147664-.318548-.019084-.018263-.042304-.028215-.06969-.030703-.120281-.008297-.199925-.000833-.237263.021569-6.419346 3.850944-12.868553 7.658754-19.256374 11.561966-.174214.106178-.291188.234758-.350914.385749-.010784.027384-.006642.058066.010784.081299.091255.117804.186661.226475.285381.326033 4.568535 4.585119 9.138725 9.166939 13.712242 13.747087.086281.086279.146012.1626.179184.229796.058907.118631-.02322.258001-.155128.264639-.633793.029863-1.4609.009954-1.913029.012441-3.750557.019083-7.501953.012446-11.252518-.019079-.673622-.004978-1.270095-.169235-1.737987-.636291-2.774967-2.766678-5.560723-5.548285-8.358084-8.345652-.090435-.091253-.228138-.116135-.345112-.062218-.211544.097895-.431381.215701-.657861.352574-4.568541 2.757545-9.142886 5.506799-13.721375 8.247761-.536745.32188-1.158106.480327-1.863256.476181-2.680395-.018254-5.366601-.058903-8.046996-.028208-2.315375.027378-4.063318.029039-5.24216.004978-.884341-.01825-1.568748-.798893-1.80933-1.591148-.052265-.170895-.073834-.569926-.064712-1.197924.009959-.729212.014935-1.458412.01411-2.187622-.000834-3.033798.044793-6.065113.013268-9.099748-.025716-2.541016-.016593-4.345368.028208-5.413058.014102-.331835.119462-.769018.316071-1.310743.30031-.823782.963152-1.493254 1.695677-1.936251 3.59211-2.171034 7.191692-4.329611 10.797911-6.475763.150153-.089592.292843-.130242.428068-.122778.029863.001657.056412.01991.068848.046459.076326.163429.113656.27211.112831.326023-.02572 1.588667.005801 3.195574.005801 4.760172.002492 5.751526.004154 11.503893.003321 17.255419 0 .135223.03318.25634.099554.364189.014102.023231.040647.036495.068026.034006.151808-.013266.261314-.03982.328514-.080467 4.035943-2.412436 12.985531-7.788156 26.850422-16.126337 3.204705-1.927962 6.911297-4.172003 9.614087-5.773108.68441-.405662 1.290836-.494429 2.156093-.492765 6.430962.014923 12.861931.018243 19.292061.00995 1.578697-.001661 2.341919.770678 2.34523 2.344412.01577 7.992243.019089 15.984493.009132 23.976725-.000831.202425.16343.462085.430565.29949 2.210846-1.343928 4.348694-2.813963 6.529671-4.207665.517662-.331003.982231-.630493 1.392883-.898449 10.676789-6.973516 21.385094-13.898906 32.086769-20.834245.937439-.607262 1.623513-.693545 2.73433-.688565 2.706115.011607 5.412224.015761 8.118332.011607.468711-.000828.821304.037338 1.057724.113664 1.127426.365011 1.367179 1.258478 1.367179 2.364323.001648 4.768469.002472 9.536102.001648 14.303739 0 2.408295.428055 4.772618-1.865745 6.177933z"/></svg>

<?xml version="1.0" encoding="UTF-8"?>
<!-- Generated by Pixelmator Pro 3.6.14 -->
<svg width="129" height="31" viewBox="0 0 129 31" xmlns="http://www.w3.org/2000/svg">
    <path id="kia" fill="#000000" stroke="none" d="M 126.333336 23.463066 C 124.412849 24.640257 120.757683 26.832859 115.367027 30.042528 C 115.245079 30.115532 115.138062 30.167797 115.047638 30.199322 C 115.020248 30.208447 114.995361 30.202639 114.97464 30.181898 C 114.885033 30.089817 114.840225 29.980309 114.841057 29.85421 C 114.852676 23.351084 114.846878 16.84877 114.823654 10.346472 C 114.822807 10.077686 114.763084 9.903465 114.490982 9.84374 C 114.465256 9.838755 114.438721 9.841248 114.415482 9.852863 C 114.262001 9.929188 114.155815 9.985594 114.098579 10.022923 C 104.420624 16.289627 94.747635 22.56629 85.088753 28.862858 C 84.166245 29.46431 83.41629 29.529844 82.204277 29.533159 C 78.124367 29.547268 74.041962 29.558878 69.962875 29.529844 C 67.714699 29.513252 65.462364 29.565516 63.215847 29.509104 C 62.042809 29.47924 61.342636 28.572502 61.317749 27.42186 C 61.300335 26.578171 61.292034 25.843988 61.293694 25.219307 C 61.312771 17.892395 61.343468 10.566305 61.274609 3.240217 C 61.272949 3.121588 61.224003 3.0154 61.126945 2.921669 C 61.107861 2.903406 61.084641 2.893454 61.057255 2.890966 C 60.936974 2.882669 60.85733 2.890133 60.819992 2.912535 C 54.400646 6.763479 47.951439 10.571289 41.563618 14.474501 C 41.389404 14.580679 41.27243 14.709259 41.212704 14.86025 C 41.20192 14.887634 41.206062 14.918316 41.223488 14.941549 C 41.314743 15.059353 41.410149 15.168024 41.508869 15.267582 C 46.077404 19.852701 50.647594 24.434521 55.221111 29.014669 C 55.307392 29.100948 55.367123 29.177269 55.400295 29.244465 C 55.459202 29.363096 55.377075 29.502466 55.245167 29.509104 C 54.611374 29.538967 53.784267 29.519058 53.332138 29.521545 C 49.581581 29.540628 45.830185 29.533991 42.07962 29.502466 C 41.405998 29.497488 40.809525 29.333231 40.341633 28.866175 C 37.566666 26.099497 34.78091 23.31789 31.983549 20.520523 C 31.893114 20.42927 31.755411 20.404388 31.638437 20.458305 C 31.426893 20.5562 31.207056 20.674006 30.980576 20.810879 C 26.412035 23.568424 21.83769 26.317678 17.259201 29.05864 C 16.722456 29.38052 16.101095 29.538967 15.395945 29.534821 C 12.71555 29.516567 10.029344 29.475918 7.348949 29.506613 C 5.033574 29.533991 3.285631 29.535652 2.106789 29.511591 C 1.222448 29.493341 0.538041 28.712698 0.297459 27.920443 C 0.245194 27.749548 0.223625 27.350517 0.232747 26.722519 C 0.242706 25.993307 0.247682 25.264107 0.246857 24.534897 C 0.246023 21.501099 0.29165 18.469784 0.260125 15.435149 C 0.234409 12.894133 0.243532 11.089781 0.288333 10.022091 C 0.302435 9.690256 0.407795 9.253073 0.604404 8.711348 C 0.904714 7.887566 1.567556 7.218094 2.300081 6.775097 C 5.892191 4.604063 9.491773 2.445486 13.097992 0.299334 C 13.248145 0.209742 13.390835 0.169092 13.52606 0.176556 C 13.555923 0.178213 13.582472 0.196466 13.594908 0.223015 C 13.671234 0.386444 13.708564 0.495125 13.707739 0.549038 C 13.682019 2.137705 13.71354 3.744612 13.71354 5.30921 C 13.716032 11.060736 13.717694 16.813103 13.716861 22.564629 C 13.716861 22.699852 13.750041 22.820969 13.816415 22.928818 C 13.830517 22.952049 13.857062 22.965313 13.884441 22.962824 C 14.036249 22.949558 14.145755 22.923004 14.212955 22.882357 C 18.248898 20.469921 27.198486 15.094201 41.063377 6.75602 C 44.268082 4.828058 47.974674 2.584017 50.677464 0.982912 C 51.361874 0.57725 51.9683 0.488483 52.833557 0.490147 C 59.264519 0.50507 65.695488 0.50839 72.125618 0.500097 C 73.704315 0.498436 74.467537 1.270775 74.470848 2.844509 C 74.486618 10.836752 74.489937 18.829002 74.47998 26.821234 C 74.479149 27.023659 74.64341 27.283319 74.910545 27.120724 C 77.121391 25.776796 79.259239 24.306761 81.440216 22.913059 C 81.957878 22.582056 82.422447 22.282566 82.833099 22.01461 C 93.509888 15.041094 104.218193 8.115704 114.919868 1.180365 C 115.857307 0.573103 116.543381 0.48682 117.654198 0.4918 C 120.360313 0.503407 123.066422 0.507561 125.77253 0.503407 C 126.241241 0.502579 126.593834 0.540745 126.830254 0.617071 C 127.95768 0.982082 128.197433 1.875549 128.197433 2.981394 C 128.199081 7.749863 128.199905 12.517496 128.199081 17.285133 C 128.199081 19.693428 128.627136 22.057751 126.333336 23.463066 Z"/>
</svg>
